<?xml version="1.0" encoding="UTF-8"?>
<map version="1.10" tiledversion="1.12.2" orientation="orthogonal" renderorder="right-down" width="25" height="25" tilewidth="16" tileheight="16" infinite="0" nextlayerid="2" nextobjectid="1">
 <tileset firstgid="1" source="garland_castle.tsx"/>
 <layer id="1" name="Tile Layer 1" width="25" height="25">
  <data encoding="csv">
21,21,21,21,21,21,21,21,21,21,21,21,21,21,21,21,21,21,21,21,21,21,21,21,21,
21,21,21,21,21,21,21,21,21,21,21,21,21,21,21,21,21,21,21,21,21,21,21,21,21,
21,21,21,21,21,21,21,21,21,21,21,21,21,21,21,21,21,21,21,21,21,21,21,21,21,
21,21,21,21,21,21,21,21,21,21,21,21,21,21,21,21,21,21,21,21,21,21,21,21,21,
21,21,21,21,21,21,21,21,21,21,21,21,21,21,21,21,21,21,21,21,21,21,21,21,21,
21,21,21,21,21,21,21,21,21,21,21,21,21,21,21,21,21,21,21,21,21,21,21,21,21,
21,21,21,21,21,21,21,21,21,21,21,21,21,21,21,21,21,21,21,21,21,21,21,21,21,
21,21,21,21,21,21,21,21,21,21,21,1,2,2,2,2,2,2,3,21,21,21,21,21,21,
21,21,21,21,21,21,21,21,21,21,21,9,10,10,10,10,10,10,11,21,21,21,21,21,21,
21,21,21,21,21,21,21,21,21,21,21,9,10,10,10,10,10,10,11,21,21,21,21,21,21,
21,21,21,21,21,21,21,21,21,21,21,9,10,10,10,10,10,10,11,21,21,21,21,21,21,
21,21,21,21,21,21,21,21,21,21,21,17,18,18,18,18,18,18,11,21,21,21,21,21,21,
21,21,21,21,21,21,21,8,20,20,20,20,20,20,6,20,20,20,20,8,21,21,21,21,21,
21,21,21,34,34,34,21,21,21,21,21,21,21,21,21,21,21,21,21,21,21,21,21,21,21,
21,21,21,34,59,34,21,21,21,21,21,21,21,21,21,21,21,21,21,21,21,21,21,21,21,
21,21,21,34,34,34,21,21,21,21,21,21,21,21,21,21,21,21,21,21,21,21,21,21,21,
21,21,21,21,21,21,21,21,21,21,21,21,21,21,21,21,21,21,21,21,21,21,21,21,21,
21,21,21,21,21,21,21,21,21,21,21,21,21,21,21,21,21,21,21,21,21,21,21,21,21,
21,21,21,34,34,34,21,21,21,21,21,21,21,21,21,21,21,21,21,21,21,21,21,21,21,
21,21,21,34,59,34,21,21,21,21,21,21,21,21,21,21,21,21,21,21,21,21,21,21,21,
21,21,21,34,34,34,21,21,21,21,21,21,21,21,21,21,21,21,21,21,21,21,21,21,21,
21,21,21,21,21,21,21,21,32,32,32,21,32,32,32,21,21,21,21,21,21,21,21,21,21,
21,21,21,21,21,21,21,21,21,21,32,21,32,21,21,21,21,21,21,21,21,21,21,21,21,
21,21,21,21,21,21,21,21,21,21,32,21,32,21,21,21,21,21,21,21,21,21,21,21,21,
21,21,21,21,21,21,21,21,21,21,32,21,32,21,21,21,21,21,21,21,21,21,21,21,21
</data>
 </layer>
</map>
