<?xml version="1.0" encoding="UTF-8"?>
<map version="1.10" tiledversion="1.12.2" orientation="orthogonal" renderorder="right-down" width="25" height="25" tilewidth="16" tileheight="16" infinite="0" nextlayerid="2" nextobjectid="1">
 <tileset firstgid="1" source="tilesets/town.tsx"/>
 <layer id="1" name="Tile Layer 1" width="25" height="25">
  <data encoding="csv">
1,1,1,1,1,1,1,1,1,1,1,1,1,1,1,1,1,1,1,1,1,1,1,1,1,
1,1,1,1,1,1,1,1,1,1,1,1,1,1,1,1,1,1,1,1,1,1,1,1,1,
1,1,1,1,1,1,1,1,1,1,1,1,1,1,1,1,1,1,1,1,1,1,1,1,1,
1,1,1,1,1,1,1,1,1,1,1,1,1,1,1,1,1,1,1,1,1,1,1,1,1,
1,1,1,13,13,13,13,13,13,13,13,13,13,13,13,13,13,13,13,13,13,1,1,1,1,
1,1,1,13,13,13,13,13,13,13,13,13,13,13,13,13,13,13,13,13,13,13,1,1,1,
1,1,13,13,13,13,12,12,12,12,12,12,12,12,12,12,12,12,12,12,12,13,13,1,1,
1,1,13,13,12,12,1,1,1,1,1,1,1,1,1,1,1,1,1,1,12,13,13,1,1,
1,1,13,13,1,1,21,21,21,21,1,1,1,1,1,1,1,21,21,21,12,13,13,1,1,
1,1,13,13,1,1,34,34,34,34,1,1,1,1,1,1,1,34,34,34,1,13,13,1,1,
1,1,13,13,1,1,24,33,23,23,1,1,1,1,1,12,12,24,33,24,1,13,13,1,1,
1,1,13,13,1,1,1,14,14,14,14,14,14,14,14,12,1,1,14,1,1,13,13,1,1,
1,1,13,13,21,21,21,21,21,21,1,1,14,14,14,12,1,1,38,1,1,13,13,1,1,
1,1,13,13,34,34,34,34,34,34,1,1,14,14,14,12,36,36,38,36,36,13,13,1,1,
1,1,13,13,23,33,23,23,23,33,12,12,14,14,14,12,36,36,38,36,36,13,13,1,1,
1,1,13,13,1,14,14,14,14,14,14,37,14,14,14,12,36,36,38,36,36,13,13,1,1,
1,1,13,13,1,21,21,21,21,36,36,36,14,14,14,14,14,14,18,1,1,13,13,1,1,
1,1,13,13,1,34,34,34,34,36,36,36,14,14,14,12,1,1,1,1,1,13,13,1,1,
1,1,13,13,1,23,23,33,23,36,36,36,14,14,14,12,1,1,1,1,1,13,13,1,1,
1,1,13,13,1,1,1,14,14,14,14,14,14,14,14,1,1,1,1,1,1,13,13,1,1,
1,1,13,13,1,1,1,1,1,1,1,14,14,14,14,1,1,1,1,1,1,13,13,1,1,
1,1,12,13,1,1,1,1,1,1,1,14,14,14,14,1,1,1,1,1,1,13,13,1,1,
1,1,1,12,1,1,1,1,1,1,1,1,14,14,1,1,1,1,1,1,1,12,12,1,1,
1,1,1,40,40,40,40,40,40,40,40,40,14,40,40,40,40,40,40,40,40,40,40,1,1,
1,1,1,1,1,1,1,1,1,1,1,12,14,12,1,1,1,1,1,1,1,1,1,1,1
</data>
 </layer>
</map>
