<?xml version="1.0" encoding="UTF-8"?>
<map version="1.10" tiledversion="1.12.2" orientation="orthogonal" renderorder="right-down" width="50" height="20" tilewidth="16" tileheight="16" infinite="0" nextlayerid="2" nextobjectid="1">
 <tileset firstgid="1" source="world.tsx"/>
 <layer id="1" name="Tile Layer 1" width="50" height="20">
  <data encoding="csv">
16,30,30,30,30,16,16,16,16,16,16,17,73,73,73,71,71,71,71,71,71,71,71,71,71,71,71,71,71,71,71,71,71,32,33,33,33,33,33,33,33,33,33,33,33,33,33,33,33,19,
31,71,94,95,71,15,16,16,16,16,16,17,73,73,73,71,71,71,71,71,71,71,71,71,71,71,71,71,71,71,71,71,71,71,71,71,71,71,71,71,71,71,71,71,71,71,71,71,71,18,
71,107,108,109,110,15,16,16,16,16,16,17,73,73,73,71,71,71,71,71,71,71,71,71,71,71,71,71,71,71,71,71,71,71,71,71,71,71,71,71,71,71,71,39,40,71,71,71,71,18,
71,71,71,71,71,15,16,16,16,16,16,17,73,73,73,71,71,71,71,71,71,71,71,71,71,71,71,71,71,71,71,71,71,71,71,71,71,11,12,12,12,12,12,53,54,13,71,71,71,18,
71,71,71,71,71,15,16,16,16,16,16,17,73,73,73,71,71,71,71,71,71,71,71,71,71,71,71,71,71,71,71,71,71,71,71,71,24,26,26,26,26,26,26,67,68,26,28,71,71,18,
71,71,71,71,71,29,30,30,30,16,16,17,73,73,73,73,73,73,73,44,71,71,71,71,71,71,71,71,71,71,71,71,71,71,71,71,38,26,41,26,55,26,26,26,26,26,42,71,71,18,
71,71,71,71,71,71,71,71,71,29,16,17,73,73,73,73,73,73,73,73,44,71,71,71,71,71,71,71,71,71,71,71,71,71,71,71,52,26,26,26,26,26,26,26,26,26,56,71,71,18,
71,71,71,71,71,71,71,71,71,71,29,31,57,73,73,73,73,73,73,73,73,71,71,71,71,71,71,71,71,71,71,71,71,71,71,71,66,26,26,26,26,26,26,26,26,26,70,71,71,18,
2,2,2,2,2,2,2,3,71,71,71,71,71,71,71,71,71,71,71,57,73,73,44,71,71,71,71,71,71,71,71,71,71,71,71,71,80,82,26,26,83,81,81,81,81,81,84,71,71,18,
16,16,16,16,16,16,16,16,3,71,71,47,76,76,62,71,71,71,71,71,57,73,58,71,71,71,71,71,71,71,71,71,71,71,71,71,71,71,71,71,71,71,71,71,71,71,71,71,71,18,
16,16,16,16,16,16,16,16,17,93,47,76,76,62,4,5,5,5,5,5,5,5,6,71,71,71,71,71,71,71,71,71,71,71,71,71,71,71,71,71,71,71,71,71,71,71,71,71,71,18,
16,16,16,16,16,16,16,16,17,47,76,76,62,71,18,19,19,19,19,19,19,19,20,71,71,71,71,71,71,71,71,71,71,71,71,71,71,71,71,71,71,71,71,71,71,71,71,71,4,19,
16,16,16,16,16,16,16,16,17,61,76,62,71,71,32,33,33,33,33,33,33,33,34,71,71,71,71,71,49,77,50,71,71,71,4,5,5,5,5,5,5,6,85,86,87,4,5,5,19,19,
16,16,16,16,16,16,16,16,17,71,71,71,71,71,71,71,71,71,71,71,71,71,71,71,71,71,71,71,63,77,64,71,71,71,18,19,19,19,19,19,19,20,99,22,100,18,19,19,19,19,
16,16,16,16,16,16,16,16,17,71,71,71,71,71,71,71,71,71,71,71,71,71,71,71,71,71,71,71,71,71,71,71,71,71,32,33,33,33,33,33,33,34,99,22,100,32,33,33,33,34,
16,16,16,16,16,16,16,16,17,45,92,92,92,46,71,71,71,71,71,71,71,71,71,71,71,71,71,71,71,71,71,71,71,7,8,8,8,8,8,8,8,8,8,22,8,8,8,8,8,8,
16,16,16,16,16,16,16,16,17,92,92,92,92,92,71,71,71,71,71,71,71,71,71,71,71,71,71,71,85,86,86,86,7,22,22,22,22,22,22,22,22,22,22,22,22,22,22,22,22,22,
16,16,16,16,16,16,16,16,17,92,92,92,92,92,71,71,71,71,71,71,71,71,71,71,71,71,71,71,99,22,22,22,22,22,22,22,22,22,22,22,22,22,22,22,22,22,22,22,22,22,
16,16,16,16,16,16,16,16,17,59,92,92,92,60,71,71,71,71,71,71,71,71,71,71,71,71,71,71,71,71,7,22,22,22,22,22,22,22,22,22,22,22,22,22,22,22,22,22,22,22,
16,16,16,16,16,16,16,16,16,2,2,2,2,2,2,2,2,2,2,2,2,2,2,2,2,2,2,2,2,3,21,22,22,22,22,22,22,22,22,22,22,22,22,22,22,22,22,22,22,22
</data>
 </layer>
</map>
